lib/svgs/project.svg

<svg xmlns="http://www.w3.org/2000/svg" viewBox="0 0 20 20">
    <path fill="#000" fill-rule="evenodd" d="M9.988,17.99955 C9.694,17.99955 9.401,17.93255 9.138,17.79655 L2.324,14.26655 C2.03,14.11255 1.915,13.75155 2.068,13.45655 C2.219,13.16155 2.581,13.04955 2.876,13.19955 L9.69,16.72955 C9.868,16.82355 10.108,16.82455 10.285,16.72955 L17.099,13.19955 C17.392,13.04955 17.755,13.16155 17.908,13.45655 C18.06,13.75155 17.946,14.11255 17.651,14.26655 L10.837,17.79655 C10.575,17.93155 10.281,17.99955 9.988,17.99955 L9.988,17.99955 Z M9.988,14.67825 C9.694,14.67825 9.401,14.61125 9.138,14.47525 L2.324,10.94425 C2.03,10.79225 1.915,10.42925 2.068,10.13625 C2.219,9.84125 2.581,9.72525 2.876,9.87925 L9.69,13.40825 C9.868,13.50325 10.108,13.50325 10.285,13.40825 L17.099,9.87925 C17.392,9.72525 17.755,9.84125 17.908,10.13625 C18.06,10.42925 17.946,10.79225 17.651,10.94425 L10.837,14.47525 C10.575,14.61025 10.281,14.67825 9.988,14.67825 L9.988,14.67825 Z M9.988,11.48525 C9.707,11.48525 9.426,11.42025 9.176,11.29025 L2.801,7.98725 C2.307,7.73125 2,7.25425 2,6.74225 C2,6.23025 2.307,5.75325 2.801,5.49725 L9.176,2.19425 C9.676,1.93525 10.299,1.93525 10.8,2.19425 L17.175,5.49725 C17.669,5.75325 17.975,6.23025 17.975,6.74225 C17.975,7.25425 17.669,7.73125 17.175,7.98725 L10.8,11.29025 C10.55,11.42025 10.269,11.48525 9.988,11.48525 L9.988,11.48525 Z M9.988,3.19925 C9.897,3.19925 9.805,3.22025 9.727,3.26025 L3.352,6.56325 C3.26,6.61125 3.2,6.68125 3.2,6.74225 C3.2,6.80325 3.26,6.87325 3.352,6.92125 L9.727,10.22425 C9.884,10.30425 10.092,10.30425 10.249,10.22425 L16.624,6.92125 C16.716,6.87325 16.775,6.80325 16.775,6.74225 C16.775,6.68125 16.716,6.61125 16.624,6.56325 L10.249,3.26025 C10.171,3.22025 10.079,3.19925 9.988,3.19925 L9.988,3.19925 Z"/>
</svg>

<svg xmlns="http://www.w3.org/2000/svg" viewBox="0 0 20 20">
    <path fill="#000" fill-rule="evenodd" d="M9.988 18c-.294 0-.587-.067-.85-.203l-6.814-3.53a.601.601 0 0 1 .552-1.067l6.814 3.53a.66.66 0 0 0 .595 0l6.814-3.53a.601.601 0 0 1 .552 1.067l-6.814 3.53a1.86 1.86 0 0 1-.849.203m0-3.322c-.294 0-.587-.067-.85-.203l-6.814-3.53a.599.599 0 1 1 .552-1.066l6.814 3.53a.657.657 0 0 0 .595 0l6.814-3.53a.599.599 0 1 1 .552 1.065l-6.814 3.531a1.86 1.86 0 0 1-.849.203m0-3.193c-.281 0-.562-.065-.812-.195L2.801 7.987A1.422 1.422 0 0 1 2 6.742c0-.512.307-.989.801-1.245l6.375-3.303a1.794 1.794 0 0 1 1.624 0l6.375 3.303c.494.256.8.733.8 1.245 0 .512-.306.99-.8 1.245L10.8 11.29c-.25.13-.531.195-.812.195m0-8.286a.58.58 0 0 0-.261.061L3.352 6.563c-.092.048-.152.118-.152.18 0 .06.06.13.152.178l6.375 3.303c.157.08.365.08.522 0l6.375-3.303c.092-.048.151-.118.151-.179 0-.06-.059-.13-.151-.179L10.249 3.26a.58.58 0 0 0-.261-.06"/>
</svg>
